; generated by Slic3r 1.2.9 on 2022-06-13 at 10:41:45

; external perimeters extrusion width = 0.40mm
; perimeters extrusion width = 0.68mm
; infill extrusion width = 0.50mm
; solid infill extrusion width = 0.68mm
; top infill extrusion width = 0.68mm

M107
M190 S110 ; set bed temperature
M104 S250 ; set temperature
G28 ; home all axes
G1 Z5 F5000 ; lift nozzle

M109 S250 ; wait for temperature to be reached
G21 ; set units to millimeters
G90 ; use absolute coordinates
M82 ; use absolute distances for extrusion
G92 E0
G1 Z0.320 F18000.000
G1 E-2.00000 F2400.00000
G92 E0
G1 X105.006 Y104.542 F18000.000
G1 E2.00000 F2400.00000
G1 X105.613 Y104.016 E2.03341 F2400.000
G1 X106.139 Y103.623 E2.06070
G1 X106.814 Y103.188 E2.09410
G1 X107.391 Y102.874 E2.12141
G1 X108.121 Y102.540 E2.15480
G1 X108.736 Y102.311 E2.18211
G1 X109.507 Y102.084 E2.21552
G1 X110.148 Y101.945 E2.24281
G1 X110.944 Y101.830 E2.27622
G1 X112.000 Y101.769 E2.32022
G1 X188.000 Y101.769 E5.48078
G1 X189.056 Y101.831 E5.52478
G1 X189.852 Y101.945 E5.55819
G1 X190.493 Y102.084 E5.58548
G1 X191.263 Y102.311 E5.61887
G1 X191.879 Y102.540 E5.64619
G1 X192.621 Y102.880 E5.68015
G1 X193.185 Y103.188 E5.70689
G1 X193.861 Y103.623 E5.74030
G1 X194.387 Y104.016 E5.76759
G1 X194.994 Y104.542 E5.80100
G1 X195.458 Y105.006 E5.82829
G1 X195.984 Y105.613 E5.86171
G1 X196.377 Y106.139 E5.88900
G1 X196.811 Y106.813 E5.92235
G1 X197.126 Y107.391 E5.94970
G1 X197.460 Y108.121 E5.98311
G1 X197.689 Y108.736 E6.01041
G1 X197.916 Y109.507 E6.04379
G1 X198.055 Y110.148 E6.07111
G1 X198.169 Y110.944 E6.10451
G1 X198.231 Y112.000 E6.14852
G1 X198.231 Y188.000 E9.30907
G1 X198.169 Y189.056 E9.35308
G1 X198.055 Y189.852 E9.38648
G1 X197.916 Y190.493 E9.41378
G1 X197.690 Y191.263 E9.44715
G1 X197.460 Y191.879 E9.47448
G1 X197.126 Y192.609 E9.50789
G1 X196.812 Y193.185 E9.53518
G1 X196.378 Y193.861 E9.56855
G1 X195.984 Y194.387 E9.59589
G1 X195.458 Y194.994 E9.62928
G1 X194.994 Y195.458 E9.65659
G1 X194.387 Y195.984 E9.69000
G1 X193.861 Y196.377 E9.71729
G1 X193.186 Y196.811 E9.75066
G1 X192.609 Y197.126 E9.77799
G1 X191.879 Y197.460 E9.81141
G1 X191.264 Y197.689 E9.83870
G1 X190.494 Y197.915 E9.87204
G1 X189.851 Y198.055 E9.89940
G1 X189.056 Y198.169 E9.93281
G1 X188.000 Y198.231 E9.97681
G1 X112.000 Y198.231 E13.13737
G1 X110.944 Y198.169 E13.18137
G1 X110.148 Y198.055 E13.21478
G1 X109.507 Y197.916 E13.24207
G1 X108.736 Y197.689 E13.27548
G1 X108.121 Y197.460 E13.30277
G1 X107.391 Y197.126 E13.33619
G1 X106.815 Y196.812 E13.36348
G1 X106.140 Y196.378 E13.39683
G1 X105.613 Y195.984 E13.42418
G1 X105.006 Y195.458 E13.45759
G1 X104.542 Y194.994 E13.48489
G1 X104.016 Y194.387 E13.51828
G1 X103.623 Y193.861 E13.54559
G1 X103.188 Y193.185 E13.57900
G1 X102.874 Y192.609 E13.60629
G1 X102.540 Y191.879 E13.63970
G1 X102.311 Y191.264 E13.66699
G1 X102.084 Y190.493 E13.70039
G1 X101.945 Y189.852 E13.72770
G1 X101.831 Y189.056 E13.76111
G1 X101.769 Y188.000 E13.80511
G1 X101.769 Y112.000 E16.96566
G1 X101.830 Y110.944 E17.00966
G1 X101.945 Y110.149 E17.04306
G1 X102.084 Y109.507 E17.07037
G1 X102.311 Y108.736 E17.10378
G1 X102.540 Y108.121 E17.13107
G1 X102.874 Y107.391 E17.16448
G1 X103.188 Y106.815 E17.19177
G1 X103.623 Y106.139 E17.22518
G1 X104.016 Y105.613 E17.25248
G1 X104.542 Y105.006 E17.28589
G1 X104.964 Y104.584 E17.31068
G1 X105.229 Y104.765 F18000.000
G1 X105.802 Y104.268 E17.34222 F2400.000
G1 X106.328 Y103.875 E17.36952
G1 X106.965 Y103.465 E17.40104
G1 X107.542 Y103.151 E17.42835
G1 X108.231 Y102.836 E17.45987
G1 X108.847 Y102.606 E17.48718
G1 X109.574 Y102.392 E17.51872
G1 X110.215 Y102.253 E17.54601
G1 X110.966 Y102.145 E17.57755
G1 X112.000 Y102.085 E17.62062
G1 X188.000 Y102.085 E20.78117
G1 X189.034 Y102.145 E20.82424
G1 X189.784 Y102.253 E20.85577
G1 X190.426 Y102.392 E20.88307
G1 X191.153 Y102.606 E20.91459
G1 X191.768 Y102.836 E20.94190
G1 X192.458 Y103.150 E20.97343
G1 X193.034 Y103.465 E21.00073
G1 X193.672 Y103.875 E21.03227
G1 X194.198 Y104.268 E21.05957
G1 X194.771 Y104.765 E21.09110
G1 X195.235 Y105.229 E21.11840
G1 X195.732 Y105.802 E21.14994
G1 X196.125 Y106.328 E21.17723
G1 X196.534 Y106.964 E21.20871
G1 X196.849 Y107.542 E21.23606
G1 X197.165 Y108.232 E21.26760
G1 X197.394 Y108.847 E21.29490
G1 X197.607 Y109.574 E21.32641
G1 X197.747 Y110.215 E21.35373
G1 X197.855 Y110.966 E21.38526
G1 X197.915 Y112.000 E21.42833
G1 X197.915 Y188.000 E24.58888
G1 X197.855 Y189.034 E24.63195
G1 X197.747 Y189.785 E24.66349
G1 X197.608 Y190.426 E24.69078
G1 X197.394 Y191.153 E24.72229
G1 X197.165 Y191.768 E24.74961
G1 X196.849 Y192.458 E24.78116
G1 X196.535 Y193.034 E24.80845
G1 X196.125 Y193.672 E24.83995
G1 X195.732 Y194.198 E24.86728
G1 X195.235 Y194.771 E24.89881
G1 X194.771 Y195.235 E24.92611
G1 X194.198 Y195.732 E24.95765
G1 X193.672 Y196.125 E24.98494
G1 X193.035 Y196.534 E25.01644
G1 X192.458 Y196.849 E25.04377
G1 X191.768 Y197.165 E25.07532
G1 X191.153 Y197.394 E25.10261
G1 X190.427 Y197.607 E25.13409
G1 X189.784 Y197.747 E25.16144
G1 X189.034 Y197.855 E25.19297
G1 X188.000 Y197.915 E25.23604
G1 X112.000 Y197.915 E28.39660
G1 X110.966 Y197.855 E28.43967
G1 X110.215 Y197.747 E28.47120
G1 X109.574 Y197.608 E28.49850
G1 X108.847 Y197.394 E28.53003
G1 X108.232 Y197.165 E28.55732
G1 X107.542 Y196.849 E28.58887
G1 X106.966 Y196.535 E28.61616
G1 X106.329 Y196.126 E28.64765
G1 X105.802 Y195.732 E28.67499
G1 X105.229 Y195.235 E28.70653
G1 X104.765 Y194.771 E28.73383
G1 X104.269 Y194.198 E28.76535
G1 X103.875 Y193.672 E28.79266
G1 X103.465 Y193.034 E28.82420
G1 X103.151 Y192.458 E28.85149
G1 X102.836 Y191.768 E28.88303
G1 X102.606 Y191.153 E28.91032
G1 X102.393 Y190.426 E28.94184
G1 X102.253 Y189.784 E28.96915
G1 X102.145 Y189.034 E29.00069
G1 X102.085 Y188.000 E29.04376
G1 X102.085 Y112.000 E32.20431
G1 X102.145 Y110.966 E32.24738
G1 X102.253 Y110.216 E32.27891
G1 X102.392 Y109.574 E32.30621
G1 X102.606 Y108.847 E32.33775
G1 X102.835 Y108.232 E32.36504
G1 X103.151 Y107.542 E32.39658
G1 X103.465 Y106.966 E32.42387
G1 X103.875 Y106.328 E32.45541
G1 X104.268 Y105.802 E32.48271
G1 X104.765 Y105.229 E32.51424
G1 X105.187 Y104.807 E32.53904
G1 E30.53904 F2400.00000
G92 E0
G1 X107.375 Y106.792 F18000.000
G1 E2.00000 F2400.00000
G1 X108.305 Y106.095 E2.04833 F2400.000
G1 X109.183 Y105.629 E2.08966
G1 X109.957 Y105.341 E2.12398
G1 X110.925 Y105.118 E2.16531
G1 X111.958 Y105.035 E2.20839
G1 X188.042 Y105.035 E5.37245
G1 X189.075 Y105.118 E5.41554
G1 X190.043 Y105.341 E5.45686
G1 X190.817 Y105.629 E5.49118
G1 X191.837 Y106.186 E5.53952
G1 X192.625 Y106.792 E5.58085
G1 X193.209 Y107.375 E5.61517
G1 X193.905 Y108.305 E5.66348
G1 X194.371 Y109.183 E5.70483
G1 X194.707 Y110.119 E5.74615
G1 X194.882 Y110.925 E5.78048
G1 X194.965 Y111.958 E5.82356
G1 X194.965 Y188.042 E8.98762
G1 X194.882 Y189.075 E9.03072
G1 X194.659 Y190.043 E9.07202
G1 X194.371 Y190.817 E9.10635
G1 X193.814 Y191.836 E9.15467
G1 X193.209 Y192.625 E9.19601
G1 X192.625 Y193.209 E9.23033
G1 X191.695 Y193.905 E9.27865
G1 X190.816 Y194.371 E9.32000
G1 X189.882 Y194.706 E9.36130
G1 X189.075 Y194.882 E9.39564
G1 X188.042 Y194.965 E9.43872
G1 X111.958 Y194.965 E12.60279
G1 X110.925 Y194.882 E12.64588
G1 X109.957 Y194.659 E12.68719
G1 X109.183 Y194.371 E12.72152
G1 X108.164 Y193.814 E12.76983
G1 X107.503 Y193.319 E12.80417
G1 X106.792 Y192.625 E12.84549
G1 X106.186 Y191.837 E12.88683
G1 X105.629 Y190.816 E12.93516
G1 X105.293 Y189.881 E12.97648
G1 X105.118 Y189.075 E13.01081
G1 X105.035 Y188.042 E13.05389
G1 X105.035 Y111.958 E16.21795
G1 X105.118 Y110.925 E16.26103
G1 X105.293 Y110.119 E16.29535
G1 X105.629 Y109.183 E16.33668
G1 X106.186 Y108.163 E16.38501
G1 X106.681 Y107.503 E16.41933
G1 X107.333 Y106.834 E16.45817
G1 X107.590 Y107.022 F18000.000
G1 X108.466 Y106.366 E16.50369 F2400.000
G1 X109.304 Y105.921 E16.54315
G1 X110.056 Y105.640 E16.57654
G1 X110.981 Y105.428 E16.61599
G1 X111.963 Y105.350 E16.65697
G1 X188.037 Y105.350 E19.82056
G1 X189.019 Y105.428 E19.86154
G1 X189.944 Y105.640 E19.90099
G1 X190.696 Y105.921 E19.93438
G1 X191.657 Y106.446 E19.97991
G1 X192.410 Y107.022 E20.01936
G1 X192.978 Y107.590 E20.05275
G1 X193.633 Y108.466 E20.09826
G1 X194.079 Y109.304 E20.13773
G1 X194.401 Y110.197 E20.17718
G1 X194.572 Y110.981 E20.21057
G1 X194.650 Y111.963 E20.25155
G1 X194.650 Y188.037 E23.41514
G1 X194.571 Y189.019 E23.45613
G1 X194.360 Y189.943 E23.49557
G1 X194.079 Y190.696 E23.52896
G1 X193.555 Y191.656 E23.57448
G1 X192.978 Y192.410 E23.61394
G1 X192.410 Y192.978 E23.64733
G1 X191.534 Y193.633 E23.69284
G1 X190.696 Y194.079 E23.73232
G1 X189.804 Y194.401 E23.77175
G1 X189.019 Y194.572 E23.80515
G1 X188.037 Y194.650 E23.84613
G1 X111.963 Y194.650 E27.00972
G1 X110.981 Y194.571 E27.05071
G1 X110.056 Y194.360 E27.09016
G1 X109.304 Y194.079 E27.12354
G1 X108.344 Y193.555 E27.16905
G1 X107.701 Y193.073 E27.20245
G1 X107.022 Y192.410 E27.24191
G1 X106.366 Y191.533 E27.28744
G1 X105.921 Y190.696 E27.32689
G1 X105.599 Y189.803 E27.36635
G1 X105.428 Y189.019 E27.39973
G1 X105.350 Y188.037 E27.44071
G1 X105.350 Y111.963 E30.60430
G1 X105.428 Y110.981 E30.64528
G1 X105.599 Y110.197 E30.67866
G1 X105.921 Y109.304 E30.71812
G1 X106.446 Y108.343 E30.76365
G1 X106.927 Y107.701 E30.79703
G1 X107.548 Y107.065 E30.83399
G1 X107.805 Y107.253 F18000.000
G1 X108.627 Y106.638 E30.87671 F2400.000
G1 X109.425 Y106.212 E30.91430
G1 X110.156 Y105.940 E30.94675
G1 X111.037 Y105.739 E30.98433
G1 X111.969 Y105.666 E31.02320
G1 X188.031 Y105.666 E34.18633
G1 X188.963 Y105.739 E34.22520
G1 X189.844 Y105.940 E34.26278
G1 X190.575 Y106.212 E34.29523
G1 X191.477 Y106.705 E34.33796
G1 X192.195 Y107.253 E34.37554
G1 X192.747 Y107.805 E34.40799
G1 X193.362 Y108.627 E34.45070
G1 X193.788 Y109.425 E34.48830
G1 X194.095 Y110.275 E34.52588
G1 X194.261 Y111.037 E34.55833
G1 X194.334 Y111.969 E34.59720
G1 X194.334 Y188.031 E37.76033
G1 X194.261 Y188.963 E37.79921
G1 X194.060 Y189.844 E37.83677
G1 X193.788 Y190.575 E37.86923
G1 X193.295 Y191.477 E37.91194
G1 X192.747 Y192.195 E37.94953
G1 X192.195 Y192.747 E37.98199
G1 X191.373 Y193.362 E38.02469
G1 X190.575 Y193.788 E38.06230
G1 X189.725 Y194.095 E38.09986
G1 X188.963 Y194.261 E38.13232
G1 X188.031 Y194.334 E38.17119
G1 X111.969 Y194.334 E41.33432
G1 X111.037 Y194.261 E41.37320
G1 X110.156 Y194.060 E41.41078
G1 X109.425 Y193.788 E41.44323
G1 X108.524 Y193.295 E41.48593
G1 X107.899 Y192.828 E41.51839
G1 X107.253 Y192.195 E41.55598
G1 X106.705 Y191.477 E41.59356
G1 X106.212 Y190.575 E41.63629
G1 X105.905 Y189.725 E41.67387
G1 X105.739 Y188.963 E41.70632
G1 X105.666 Y188.031 E41.74519
G1 X105.666 Y111.969 E44.90831
G1 X105.739 Y111.037 E44.94718
G1 X105.905 Y110.275 E44.97963
G1 X106.212 Y109.425 E45.01722
G1 X106.705 Y108.523 E45.05994
G1 X107.172 Y107.899 E45.09239
G1 X107.763 Y107.296 E45.12748
G1 X108.020 Y107.484 F18000.000
G1 X108.788 Y106.909 E45.16739 F2400.000
G1 X109.546 Y106.504 E45.20311
G1 X110.256 Y106.239 E45.23462
G1 X111.093 Y106.049 E45.27033
G1 X111.975 Y105.981 E45.30710
G1 X188.025 Y105.981 E48.46976
G1 X188.907 Y106.050 E48.50652
G1 X189.744 Y106.239 E48.54223
G1 X190.454 Y106.504 E48.57375
G1 X191.297 Y106.964 E48.61367
G1 X191.980 Y107.484 E48.64938
G1 X192.516 Y108.020 E48.68089
G1 X193.091 Y108.788 E48.72079
G1 X193.496 Y109.546 E48.75652
G1 X193.789 Y110.353 E48.79223
G1 X193.950 Y111.093 E48.82374
G1 X194.019 Y111.975 E48.86051
G1 X194.019 Y188.025 E52.02317
G1 X193.950 Y188.907 E52.05994
G1 X193.761 Y189.744 E52.09564
G1 X193.496 Y190.454 E52.12716
G1 X193.036 Y191.297 E52.16707
G1 X192.516 Y191.980 E52.20279
G1 X191.980 Y192.516 E52.23430
G1 X191.212 Y193.091 E52.27421
G1 X190.454 Y193.496 E52.30994
G1 X189.647 Y193.789 E52.34563
G1 X188.907 Y193.950 E52.37715
G1 X188.025 Y194.019 E52.41392
G1 X111.975 Y194.019 E55.57658
G1 X111.093 Y193.950 E55.61335
G1 X110.256 Y193.761 E55.64906
G1 X109.546 Y193.496 E55.68057
G1 X108.703 Y193.036 E55.72048
G1 X108.097 Y192.582 E55.75200
G1 X107.484 Y191.980 E55.78771
G1 X106.909 Y191.211 E55.82763
G1 X106.504 Y190.454 E55.86334
G1 X106.211 Y189.647 E55.89905
G1 X106.050 Y188.907 E55.93057
G1 X105.981 Y188.025 E55.96733
G1 X105.981 Y111.975 E59.12999
G1 X106.049 Y111.093 E59.16675
G1 X106.211 Y110.353 E59.19826
G1 X106.504 Y109.546 E59.23398
G1 X106.964 Y108.703 E59.27390
G1 X107.418 Y108.097 E59.30541
G1 X107.978 Y107.527 E59.33862
G1 X108.235 Y107.715 F18000.000
G1 X108.949 Y107.181 E59.37573 F2400.000
G1 X109.666 Y106.795 E59.40958
G1 X110.355 Y106.538 E59.44015
G1 X111.149 Y106.360 E59.47399
G1 X111.980 Y106.296 E59.50866
G1 X188.020 Y106.296 E62.67085
G1 X188.851 Y106.360 E62.70551
G1 X189.645 Y106.538 E62.73935
G1 X190.334 Y106.795 E62.76992
G1 X191.117 Y107.223 E62.80704
G1 X191.705 Y107.664 E62.83761
G1 X192.285 Y108.235 E62.87145
G1 X192.819 Y108.949 E62.90855
G1 X193.205 Y109.666 E62.94241
G1 X193.484 Y110.431 E62.97625
G1 X193.640 Y111.149 E63.00682
G1 X193.704 Y111.980 E63.04148
G1 X193.704 Y188.020 E66.20367
G1 X193.640 Y188.851 E66.23834
G1 X193.462 Y189.645 E66.27217
G1 X193.205 Y190.334 E66.30275
G1 X192.777 Y191.117 E66.33986
G1 X192.285 Y191.765 E66.37370
G1 X191.765 Y192.285 E66.40428
G1 X191.051 Y192.819 E66.44138
G1 X190.333 Y193.205 E66.47524
G1 X189.569 Y193.484 E66.50907
G1 X188.851 Y193.640 E66.53965
G1 X188.020 Y193.704 E66.57431
G1 X111.980 Y193.704 E69.73650
G1 X111.149 Y193.640 E69.77117
G1 X110.355 Y193.461 E69.80500
G1 X109.666 Y193.205 E69.83558
G1 X108.883 Y192.777 E69.87268
G1 X108.295 Y192.336 E69.90326
G1 X107.715 Y191.765 E69.93710
G1 X107.180 Y191.050 E69.97422
G1 X106.795 Y190.334 E70.00806
G1 X106.516 Y189.569 E70.04190
G1 X106.360 Y188.851 E70.07247
G1 X106.296 Y188.020 E70.10714
G1 X106.296 Y111.980 E73.26932
G1 X106.360 Y111.149 E73.30399
G1 X106.516 Y110.431 E73.33456
G1 X106.795 Y109.666 E73.36840
G1 X107.223 Y108.883 E73.40551
G1 X107.664 Y108.295 E73.43609
G1 X108.193 Y107.758 E73.46743
G1 X108.450 Y107.946 F18000.000
G1 X109.111 Y107.452 E73.50174 F2400.000
G1 X109.787 Y107.087 E73.53371
G1 X110.455 Y106.838 E73.56335
G1 X111.205 Y106.671 E73.59532
G1 X111.986 Y106.612 E73.62788
G1 X188.014 Y106.612 E76.78960
G1 X188.795 Y106.671 E76.82216
G1 X189.545 Y106.838 E76.85413
G1 X190.213 Y107.087 E76.88376
G1 X190.937 Y107.482 E76.91807
G1 X191.507 Y107.909 E76.94771
G1 X192.054 Y108.450 E76.97968
G1 X192.548 Y109.110 E77.01398
G1 X192.913 Y109.787 E77.04596
G1 X193.178 Y110.509 E77.07793
G1 X193.329 Y111.205 E77.10756
G1 X193.388 Y111.986 E77.14012
G1 X193.388 Y188.014 E80.30184
G1 X193.329 Y188.795 E80.33440
G1 X193.162 Y189.545 E80.36637
G1 X192.913 Y190.213 E80.39601
G1 X192.518 Y190.937 E80.43031
G1 X192.054 Y191.550 E80.46228
G1 X191.550 Y192.054 E80.49192
G1 X190.890 Y192.548 E80.52622
G1 X190.213 Y192.913 E80.55820
G1 X189.491 Y193.178 E80.59016
G1 X188.795 Y193.329 E80.61981
G1 X188.014 Y193.388 E80.65236
G1 X111.986 Y193.388 E83.81408
G1 X111.205 Y193.329 E83.84664
G1 X110.509 Y193.178 E83.87628
G1 X109.787 Y192.913 E83.90825
G1 X109.063 Y192.518 E83.94255
G1 X108.493 Y192.091 E83.97219
G1 X107.946 Y191.550 E84.00416
G1 X107.482 Y190.937 E84.03613
G1 X107.087 Y190.213 E84.07044
G1 X106.822 Y189.491 E84.10241
G1 X106.671 Y188.795 E84.13205
G1 X106.612 Y188.014 E84.16460
G1 X106.612 Y111.986 E87.32633
G1 X106.671 Y111.205 E87.35888
G1 X106.822 Y110.509 E87.38852
G1 X107.087 Y109.787 E87.42049
G1 X107.482 Y109.063 E87.45480
G1 X107.909 Y108.493 E87.48443
G1 X108.408 Y107.989 E87.51391
G1 X108.665 Y108.177 F18000.000
G1 X109.272 Y107.723 E87.54541 F2400.000
G1 X109.908 Y107.378 E87.57551
G1 X110.555 Y107.137 E87.60421
G1 X111.261 Y106.981 E87.63431
G1 X111.992 Y106.927 E87.66476
G1 X188.008 Y106.927 E90.82602
G1 X188.739 Y106.981 E90.85647
G1 X189.445 Y107.137 E90.88657
G1 X190.092 Y107.378 E90.91527
G1 X190.757 Y107.741 E90.94677
G1 X191.309 Y108.155 E90.97547
G1 X191.823 Y108.665 E91.00557
G1 X192.277 Y109.271 E91.03707
G1 X192.622 Y109.908 E91.06717
G1 X192.872 Y110.587 E91.09727
G1 X193.019 Y111.261 E91.12597
G1 X193.073 Y111.992 E91.15642
G1 X193.073 Y188.008 E94.31768
G1 X193.019 Y188.739 E94.34813
G1 X192.863 Y189.445 E94.37822
G1 X192.622 Y190.092 E94.40693
